!!!OTL: MIT FROHEM MUTH UND HEITREM SINN
!!!ARE: Europa, Mitteleuropa, Deutschland
!!!SCT: F0559
!!!YEM: Copyright 1995, estate of Helmut Schaffrath.
**kern
*ICvox
*Ivox
*M3/4
*k[b-]
*F:
{4a
=1
8.a
16a
8a
8a
8b-
8a
=2
4g
4r}
{4b-
=3
8.b-
16b-
8b-
8b-
8cc
8b-
=4
4a
4r}
{4cc
=5
8.dd
16dd
8dd
8cc
8dd
8cc
=6
8dd}
{8cc
8b-
8a
8g
8f
=7
8.cc
16c
8c
8cc
8cc
8cc
=8
4cc
8a}
{8a
8a
8a
=9
4a
8f
8ee
4ff
=10
4ff
4r}
==
!!!AGN: Soldaten -, Kriegs - Lied
!!!ONB: ESAC (Essen Associative Code) Database: FINK
!!!AMT: simple triple
!!!AIN: vox
!!!EED: Helmut Schaffrath
!!!EEV: 1.0
*-
